svg/business/gift_card_line.svg

<?xml version="1.0" encoding="UTF-8"?>
<svg width="24px" height="24px" viewBox="0 0 24 24" version="1.1" xmlns="http://www.w3.org/2000/svg" xmlns:xlink="http://www.w3.org/1999/xlink">
    <title>gift_card_line</title>
    <g id="Icon" stroke="none" stroke-width="1" fill="none" fill-rule="evenodd">
        <g id="Business" transform="translate(-865.000000, -384.000000)">
            <g id="gift_card_line" transform="translate(865.000000, 384.000000)">
                <path d="M24,0 L24,24 L0,24 L0,0 L24,0 Z M12.5935,23.2578 L12.5819,23.2595 L12.5109,23.295 L12.4919,23.2987 L12.4767,23.295 L12.4057,23.2595 C12.3958,23.2564 12.387,23.259 12.3821,23.2649 L12.378,23.2758 L12.3609,23.7031 L12.3659,23.7235 L12.3769,23.7357 L12.4805,23.8097 L12.4953,23.8136 L12.5071,23.8097 L12.6107,23.7357 L12.6233,23.7197 L12.6267,23.7031 L12.6096,23.2758 C12.6076,23.2657 12.601,23.2593 12.5935,23.2578 Z M12.8584,23.1453 L12.8445,23.1473 L12.6598,23.2397 L12.6499,23.2499 L12.6472,23.2611 L12.6651,23.6906 L12.6699,23.7034 L12.6784,23.7105 L12.8793,23.8032 C12.8914,23.8069 12.9022,23.803 12.9078,23.7952 L12.9118,23.7812 L12.8777,23.1665 C12.8753,23.1546 12.8674,23.147 12.8584,23.1453 Z M12.143,23.1473 C12.1332,23.1424 12.1222,23.1453 12.1156,23.1526 L12.1099,23.1665 L12.0758,23.7812 C12.0751,23.7927 12.0828,23.8019 12.0926,23.8046 L12.1083,23.8032 L12.3092,23.7105 L12.3186,23.7024 L12.3225,23.6906 L12.3404,23.2611 L12.3372,23.2485 L12.3278,23.2397 L12.143,23.1473 Z" id="MingCute" fill-rule="nonzero"></path>
                <path d="M19,4 C20.597725,4 21.903664,5.24892392 21.9949075,6.82372764 L22,7 L22,17 C22,18.597725 20.7511226,19.903664 19.1762773,19.9949075 L19,20 L5,20 C3.40232321,20 2.09633941,18.7511226 2.00509271,17.1762773 L2,17 L2,7 C2,5.40232321 3.24892392,4.09633941 4.82372764,4.00509271 L5,4 L19,4 Z M19,6 L5,6 C4.48716857,6 4.06449347,6.38604429 4.0067278,6.88337975 L4,7 L4,17 C4,17.51285 4.38604429,17.9355092 4.88337975,17.9932725 L5,18 L19,18 C19.51285,18 19.9355092,17.613973 19.9932725,17.1166239 L20,17 L20,7 C20,6.48716857 19.613973,6.06449347 19.1166239,6.0067278 L19,6 Z M12.3539,8.9916 C13.04318,7.7977824 14.5361874,7.35735437 15.7546943,7.95924414 L15.9055,8.03993 L16.4994,8.38279 C17.7976,9.13232 18.2424,10.7923 17.4929,12.0906 C16.87325,13.1638667 15.7393762,13.7552883 14.5821575,13.7333629 L14.3778,13.7231 L15.3461,15.4002 C15.6222,15.8785 15.4583,16.4901 14.98,16.7663 C14.5359571,17.0226786 13.9768908,16.8996694 13.6781485,16.4978348 L13.614,16.4002 L12,13.6047 L10.386,16.4002 C10.1099,16.8785 9.4983,17.0424 9.02001,16.7663 C8.57588357,16.5098286 8.40285556,15.9641602 8.60150437,15.5045624 L8.65399,15.4002 L9.62227,13.7231 C8.39581,13.8232 7.1633,13.227 6.50716,12.0906 C5.7876208,10.844232 6.16876691,9.26453971 7.34899183,8.47702234 L7.50066,8.38279 L8.09451,8.03993 C9.2883276,7.3506788 10.8015441,7.71578408 11.5559318,8.8463176 L11.6462,8.9916 L12,9.60449 L12.3539,8.9916 Z M14.0859,9.9916 L13.386,11.2041 L14.0045,11.5612 C14.6195,11.9162 15.4058,11.7055 15.7608,11.0906 C15.9581,10.7489 15.841,10.3121 15.4994,10.1148 L14.9055,9.77198 C14.6186,9.6063 14.2516,9.70462 14.0859,9.9916 Z M9.91412,9.9916 C9.765008,9.733318 9.4528592,9.6278506 9.18271943,9.73012066 L9.09451,9.77198 L8.50066,10.1148 C8.15902,10.3121 8.04197,10.7489 8.23922,11.0906 C8.57207,11.6670688 9.28398348,11.8882836 9.87836741,11.6211726 L9.99553,11.5612 L10.614,11.2041 L9.91412,9.9916 Z" id="形状" fill="#09244B"></path>
            </g>
        </g>
    </g>
</svg>

<svg xmlns="http://www.w3.org/2000/svg" width="24" height="24"><g fill="none" fill-rule="evenodd"><path d="M24 0v24H0V0zM12.594 23.258l-.012.002-.071.035-.02.004-.014-.004-.071-.036c-.01-.003-.019 0-.024.006l-.004.01-.017.428.005.02.01.013.104.074.015.004.012-.004.104-.074.012-.016.004-.017-.017-.427c-.002-.01-.009-.017-.016-.018m.264-.113-.014.002-.184.093-.01.01-.003.011.018.43.005.012.008.008.201.092c.012.004.023 0 .029-.008l.004-.014-.034-.614c-.003-.012-.01-.02-.02-.022m-.715.002a.023.023 0 0 0-.027.006l-.006.014-.034.614c0 .012.007.02.017.024l.015-.002.201-.093.01-.008.003-.011.018-.43-.003-.012-.01-.01z"/><path fill="#09244B" d="M19 4a3 3 0 0 1 2.995 2.824L22 7v10a3 3 0 0 1-2.824 2.995L19 20H5a3 3 0 0 1-2.995-2.824L2 17V7a3 3 0 0 1 2.824-2.995L5 4zm0 2H5a1 1 0 0 0-.993.883L4 7v10a1 1 0 0 0 .883.993L5 18h14a1 1 0 0 0 .993-.883L20 17V7a1 1 0 0 0-.883-.993zm-6.646 2.992a2.6 2.6 0 0 1 3.4-1.033l.152.08.593.344a2.714 2.714 0 0 1 .994 3.708 3.285 3.285 0 0 1-2.91 1.642l-.205-.01.968 1.677a1 1 0 0 1-1.668 1.098l-.064-.098L12 13.605 10.386 16.4a1 1 0 0 1-1.784-.895l.052-.105.968-1.677a3.286 3.286 0 0 1-3.115-1.632 2.714 2.714 0 0 1 .842-3.614l.152-.094.594-.343a2.6 2.6 0 0 1 3.46.806l.091.146.354.612zm1.732 1-.7 1.212.619.357a1.286 1.286 0 0 0 1.756-.47.714.714 0 0 0-.262-.976l-.594-.343a.6.6 0 0 0-.82.22m-4.172 0a.6.6 0 0 0-.731-.262l-.088.042-.594.343a.714.714 0 0 0-.262.976 1.286 1.286 0 0 0 1.64.53l.117-.06.618-.357z"/></g></svg>
